X:5951
T:Gan Ainm
R:strathspey
S:Tommy Peoples & Dermot Byrnes
H:
N:
D:Concert, Galway 
Z:Adrian Scahill
M:4/4
L:1/8
K:A
e2^de c=dBc|A2cA eAcd|e2^de c=dBa|(3gfe (3dcB (3Ace (3agf|\
e2^de c=dBc|A2cA eAcd|e2^de c=dBa|(3gfe (3dcB A2 ce||\
aAcA eAcA|d3e f<BBg|aAcA eAca|(3gfe (3dcB ABce|\
aAcA eAcA|d3e f<BBg|(3agf (3edc (3ded (3cBA|(3fga (3gfe fgaf||


